X: 196
T: A Fisherman's Song For Attracting Seals
R: jig
M: 6/8
K: Gmajor
Bdd dBA|dBA dBA|Bdd dBA|e2d e3:|
g2f g2a|e2d e3|g2f g2a|e2d e3|
a2e g2d|e2d BAG|Bdd dBA|
dBA dBA|Bdd dBA|e2d e3:|

